X:1
T:W. P. and A.
M:4/4
L:1/4
K:D
 D F/2F/2 A B| A F A z| d d d d| B/2- A3/2 z z/2 d/2| d/2 d3/2 d B|\
 A B/2 A3/2 F/2F/2| G/2G/2 G F E| D2 z2| z2 A2| A/2A/2 A A B| A2 z d|\
 d/2d/2 d d e| d2 z d| d d d B| A B/2 A3/2 F| G/2G/2 G F E| D2 z2|\
||

